X:1
T:Drop, drop slow tears
T:Orlando Gibbons (1583-1625)
T:Phineas Fletcher (1582-1650)
T:Drop, drop slow tears
C:Orlando Gibbons
C:(1583-1625)
Z:Phineas Fletcher
Z:(1582-1650)
%%score [ ( 1 2 ) ( 3 4 ) ]
L:1/8
M:4/4
K:F
V:1 treble nm="S A" snm="S A"
V:2 treble 
V:3 bass nm="T B" snm="T B"
V:4 bass 
V:1
 F4 A2 F2 | c6 F2 | B3 B B2 A2 | G6 G2 | E2 F2 D2 C2 | F2 A2 G2 G2 | F8 || F4 A2 F2 | c6 F2 | %9
w: Drop, drop slow|tears, and|bathe those beau- teous|feet, which|brought from heav'n the|news and Prince of|peace.|Cease not, wet|eyes, his|
 B3 B B2 A2 | G6 G2 | E2 F2 D2 C2 | F2 A2 G2 G2 | F8 || F4 A2 F2 | c6 F2 | B3 B B2 A2 | G6 G2 | %18
w: mer- cies to en-|treat; to|cry for ven- geance|sin doth nev- er|cease.|In your deep|floods drown|all my faults and|fears; nor|
 E2 F2 D2 C2 | F2 A2 G2 G2 | F8 |] %21
w: let his eye see|sin, but through my|tears.|
V:2
 C4 F2 C2 | C6 F2 | F3 F G2 F2 | E6 D2 | C2 C2 B,2 A,2 | D2 F2 F2 E2 | F8 || C4 F2 C2 | C6 F2 | %9
 F3 F G2 F2 | E6 D2 | C2 C2 B,2 A,2 | D2 F2 F2 E2 | F8 || C4 F2 C2 | C6 F2 | F3 F G2 F2 | E6 D2 | %18
 C2 C2 B,2 A,2 | D2 F2 F2 E2 | F8 |] %21
V:3
 A,4 C2 A,2 | G,6 A,2 | B,3 B, _E2 C2 | C6 B,2 | G,2 F,2 F,2 F,2 | A,2 C2 C3 B, | A,8 || %7
 A,4 C2 A,2 | G,6 A,2 | B,3 B, _E2 C2 | C6 B,2 | G,2 F,2 F,2 F,2 | A,2 C2 C3 B, | A,8 || %14
 A,4 C2 A,2 | G,6 A,2 | B,3 B, _E2 C2 | C6 B,2 | G,2 F,2 F,2 F,2 | A,2 C2 C3 B, | A,8 |] %21
V:4
 F,4 F,2 F,2 | (F,2 E,4) F,2 | D,3 D, _E,2 F,2 | C,6 G,,2 | C,2 A,,2 B,,2 F,2 | D,2 A,,2 C,2 C,2 | %6
 F,8 || F,4 F,2 F,2 | (F,2 E,4) F,2 | D,3 D, _E,2 F,2 | C,6 G,,2 | C,2 A,,2 B,,2 F,2 | %12
 D,2 A,,2 C,2 C,2 | F,8 || F,4 F,2 F,2 | (F,2 E,4) F,2 | D,3 D, _E,2 F,2 | C,6 G,,2 | %18
 C,2 A,,2 B,,2 F,2 | D,2 A,,2 C,2 C,2 | F,8 |] %21

